src/public/images/benefit4.svg

<svg width="226" height="163" viewBox="0 0 226 163" fill="none" xmlns="http://www.w3.org/2000/svg">
<rect width="115.42" height="120.368" rx="5" transform="matrix(0.965926 0.258819 0 1 50.166 -0.999023)" fill="#F9F9F9"/>
<rect x="0.482963" y="0.62941" width="77.1087" height="76.3353" rx="4.5" transform="matrix(0.965926 0.258819 0 1 65.284 29.3818)" stroke="url(#paint0_linear_4809_5398)" stroke-opacity="0.4"/>
<rect x="0.482963" y="0.62941" width="126.234" height="124.974" rx="4.5" transform="matrix(0.965926 0.258819 0 1 38.1825 2.87207)" stroke="#3D3D3D"/>
<rect x="0.482963" y="0.62941" width="78.7163" height="26.9154" rx="4.5" transform="matrix(0.965926 0.258819 0 1 6.18247 3.87598)" stroke="#A7A7A7" stroke-dasharray="6 6"/>
<rect x="0.482963" y="0.62941" width="78.7163" height="26.9154" rx="4.5" transform="matrix(0.965926 0.258819 0 1 109.182 114.877)" stroke="#A7A7A7" stroke-dasharray="6 6"/>
<rect x="0.482963" y="0.62941" width="93.3491" height="91.029" rx="4.5" transform="matrix(0.965926 0.258819 0 1 57.0653 19.126)" stroke="url(#paint1_linear_4809_5398)" stroke-opacity="0.1"/>
<rect width="64.7747" height="64.7747" rx="5" transform="matrix(0.965926 0.258819 0 1 70.502 36.7734)" fill="url(#paint2_linear_4809_5398)"/>
<rect x="0.482963" y="0.62941" width="56.2177" height="56.2177" rx="4.5" transform="matrix(0.965926 0.258819 0 1 74.2528 41.5166)" stroke="#A7A7A7" stroke-opacity="0.3"/>
<g clip-path="url(#clip0_4809_5398)">
<path d="M111.068 87.0221C111.071 87.2519 111.013 87.5362 110.954 87.7672C110.539 89.3927 108.695 90.8474 106.099 89.9746C103.746 89.1839 101.83 87.5013 101.83 85.8617C101.83 84.2221 103.742 83.4047 106.099 84.0364C108.456 84.668 111.053 85.3785 111.068 87.0221Z" fill="#3D3D3D"/>
<path d="M106.099 84.311C104.833 83.9718 101.943 83.5602 101.28 83.3825C100.108 83.0685 99.1582 83.575 99.1582 84.5142C99.1582 84.9661 99.3819 85.4341 99.7401 85.8345C99.7401 85.8345 100.527 86.8623 101.944 86.8501C102.564 86.8446 103.573 85.8405 105.349 86.114C106.234 86.2498 107.891 87.4024 110.804 88.1998C110.929 87.9548 110.955 87.7682 110.955 87.7682C110.955 86.127 108.457 84.9427 106.099 84.311Z" fill="white"/>
<path d="M110.96 87.7676C110.96 87.7676 112.668 87.8666 113.73 86.7051C114.968 85.3502 114.806 83.5018 114.806 83.5018C116.06 81.4089 114.415 78.6904 114.415 78.6904C114.251 76.0823 112.72 74.6097 112.72 74.6097C111.726 71.8973 109.526 70.6505 109.526 70.6505C107.8 68.0964 104.736 67.3427 104.736 67.3427C104.736 67.3427 101.866 65.4846 97.9257 65.6531C97.2742 65.6809 95.0906 65.5679 93.4935 66.1521C88.46 67.9935 88.0791 72.8661 88.1495 73.6939C88.5397 78.3189 91.6032 79.9494 93.5584 80.9454C94.0144 82.3493 95.6928 85.1609 98.707 85.0916C102.422 85.4126 103.986 84.6844 104.899 84.9289C105.812 85.1735 108.353 86.8667 110.96 87.7676Z" fill="#389D2D"/>
<path d="M101.559 77.9816C103.379 77.4533 104.366 77.8125 105.238 78.1277C105.514 78.2278 105.776 78.3183 106.042 78.3877C107.593 78.767 108.85 78.4269 109.406 77.9209C109.47 77.8566 109.501 77.761 109.492 77.6543C109.484 77.5476 109.437 77.438 109.361 77.3484C109.284 77.2589 109.186 77.1963 109.084 77.1739C108.983 77.1515 108.888 77.1709 108.818 77.2281C108.389 77.6185 107.333 77.8932 106.024 77.5732C105.789 77.5176 105.554 77.4303 105.31 77.3414C104.375 77.0011 103.214 76.58 101.187 77.1695C100.667 77.3209 99.9537 77.2374 99.181 77.1114C97.4628 74.0834 98.4967 72.1241 98.7923 71.6706C98.8213 71.6799 98.8494 71.6972 98.8791 71.7052C99.192 71.789 99.5064 71.7939 99.7911 71.7034C99.8778 71.672 99.9406 71.6013 99.9662 71.5065C99.9917 71.4116 99.9781 71.2999 99.9281 71.195C99.8781 71.0901 99.7957 71.0003 99.6983 70.9444C99.601 70.8886 99.4962 70.8712 99.4063 70.8958C99.1602 70.9701 98.8721 70.9319 98.5996 70.7888C98.327 70.6456 98.09 70.4081 97.9359 70.1237C97.8778 70.0233 97.7903 69.9414 97.6916 69.8951C97.5929 69.8487 97.4906 69.8416 97.406 69.8751C97.3213 69.9086 97.2608 69.9801 97.237 70.0749C97.2132 70.1696 97.228 70.2803 97.2782 70.3839C97.4636 70.734 97.7248 71.0299 98.0196 71.2603C97.6121 72.0078 96.8387 74.053 98.3106 76.9664C97.2751 76.7942 96.238 76.6677 95.4262 76.9919C94.8558 77.2263 94.3581 77.5843 93.9574 78.0484C93.4655 77.8292 91.6643 76.8875 91.3499 74.7337C91.5454 74.629 91.7034 74.464 91.8012 74.2344C91.8201 74.19 91.8294 74.1397 91.8286 74.0863C91.8278 74.0329 91.8168 73.9775 91.7964 73.9232C91.776 73.869 91.7465 73.8169 91.7096 73.77C91.6727 73.7231 91.6292 73.6824 91.5814 73.65C91.5337 73.6176 91.4826 73.5943 91.4313 73.5814C91.3799 73.5685 91.3292 73.5662 91.2821 73.5747C91.235 73.5832 91.1923 73.6023 91.1566 73.6309C91.1209 73.6596 91.0927 73.6971 91.0738 73.7415C91.0444 73.8188 90.9973 73.8837 90.936 73.9317C90.8747 73.9797 90.8006 74.0097 90.7188 74.0196C90.6359 74.0258 90.5481 74.0119 90.4614 73.9788C90.3746 73.9458 90.2909 73.8945 90.2159 73.8282C90.171 73.7903 90.1216 73.7607 90.0706 73.7409C90.0196 73.7212 89.9679 73.7117 89.9185 73.713C89.8188 73.7158 89.7345 73.7625 89.6841 73.8428C89.6336 73.9231 89.6213 74.0305 89.6498 74.1414C89.6782 74.2523 89.7451 74.3576 89.8358 74.434C90.0579 74.6215 90.2957 74.75 90.5318 74.8132C90.5608 74.821 90.5882 74.8146 90.6171 74.8207C90.9894 76.8742 92.4808 78.1321 93.5359 78.6747C93.3979 78.9421 93.3104 79.245 93.277 79.5705C93.2679 79.675 93.3002 79.79 93.3668 79.8901C93.4333 79.9902 93.5288 80.0674 93.6321 80.1045L93.6673 80.1155C93.765 80.1417 93.8592 80.1291 93.9313 80.08C94.0034 80.031 94.0481 79.9492 94.0567 79.8507C94.1412 78.8912 95.0461 78.1078 95.8501 77.7848C96.604 77.484 97.7076 77.6736 98.7759 77.857C99.8122 78.0367 100.791 78.2052 101.559 77.9816ZM111.621 79.4601C111.571 79.541 111.56 79.6488 111.589 79.7597C111.618 79.8706 111.686 79.9756 111.777 80.0515C111.868 80.1275 111.975 80.1682 112.074 80.1646C112.174 80.1611 112.258 80.1136 112.308 80.0327C112.323 80.0092 113.748 77.6261 111.079 75.0527C110.993 74.9697 110.887 74.9193 110.786 74.9127C110.684 74.9061 110.594 74.9437 110.536 75.0173C110.478 75.091 110.457 75.1945 110.477 75.3052C110.497 75.416 110.557 75.5248 110.643 75.6078C112.71 77.6015 111.666 79.3848 111.621 79.4601ZM95.4106 68.5791C95.4726 68.5957 95.5337 68.5968 95.589 68.5824C95.6442 68.5679 95.6919 68.5382 95.7281 68.4958C96.8621 67.1665 98.4326 68.146 98.499 68.1897C98.5954 68.2484 98.7003 68.2694 98.7916 68.2482C98.883 68.227 98.9536 68.1654 98.9886 68.0762C99.0236 67.987 99.0203 67.8773 98.9793 67.7703C98.9383 67.6632 98.8628 67.5672 98.7689 67.5025C98.0181 67.0131 96.2842 66.4578 95.093 67.8535C95.0512 67.9028 95.0263 67.9674 95.021 68.0401C95.0157 68.1129 95.0303 68.1911 95.0631 68.266C95.0959 68.341 95.1457 68.4098 95.207 68.4651C95.2683 68.5203 95.3387 68.5598 95.4106 68.5791ZM105.634 69.7898C107.374 70.1095 108.166 71.6276 108.202 71.6988C108.254 71.8055 108.34 71.8958 108.441 71.9498C108.49 71.9765 108.542 71.9935 108.593 71.9998C108.644 72.0061 108.693 72.0015 108.737 71.9865C108.782 71.9714 108.821 71.946 108.852 71.9119C108.882 71.8777 108.905 71.8354 108.918 71.7874C108.931 71.7393 108.934 71.6865 108.927 71.6319C108.92 71.5773 108.903 71.522 108.877 71.4691C108.834 71.3841 107.829 69.3924 105.573 68.9662C105.522 68.9566 105.472 68.9578 105.426 68.9696C105.38 68.9815 105.34 69.0038 105.306 69.0353C105.239 69.0988 105.206 69.1959 105.214 69.3051C105.222 69.4143 105.271 69.5267 105.349 69.6176C105.428 69.7085 105.531 69.7705 105.634 69.7898ZM112.79 83.5376C112.598 83.4747 112.386 83.5758 112.369 83.7947C112.367 83.8088 112.243 85.1528 110.875 85.2518C110.785 85.2569 110.709 85.2979 110.66 85.3673C110.611 85.4367 110.592 85.5298 110.607 85.6296C110.621 85.7294 110.669 85.8293 110.741 85.9109C110.813 85.9925 110.904 86.0505 110.998 86.0742C111.039 86.0852 111.08 86.0894 111.12 86.0866C112.975 85.9537 113.142 84.1477 113.148 84.0708C113.153 84.0189 113.147 83.9639 113.131 83.9089C113.115 83.854 113.09 83.8003 113.057 83.7507C113.024 83.7012 112.983 83.6569 112.937 83.6203C112.891 83.5837 112.842 83.5556 112.79 83.5376Z" fill="white"/>
<path d="M93.4343 74.4163C93.4189 74.4641 93.4138 74.5173 93.4192 74.5728C93.4247 74.6283 93.4405 74.6849 93.4659 74.7393C93.4913 74.7937 93.5257 74.8446 93.567 74.8892C93.6083 74.9338 93.6557 74.971 93.7064 74.9988C93.7571 75.0265 93.81 75.0441 93.862 75.0505C93.914 75.057 93.964 75.0521 94.009 75.0363C94.054 75.0205 94.0932 74.9939 94.1241 74.9583C94.155 74.9227 94.1771 74.8787 94.189 74.829C94.2643 74.5687 94.4394 74.375 94.6791 74.2869C94.9188 74.1988 95.2053 74.2228 95.481 74.3542C95.5313 74.3786 95.5832 74.393 95.6336 74.3967C95.6841 74.4003 95.7322 74.3932 95.7752 74.3756C95.8182 74.358 95.8552 74.3304 95.8842 74.2942C95.9132 74.2581 95.9335 74.2141 95.944 74.1649C95.9546 74.1157 95.9551 74.0621 95.9456 74.0073C95.936 73.9525 95.9167 73.8975 95.8886 73.8455C95.8605 73.7934 95.8242 73.7454 95.7818 73.704C95.7393 73.6627 95.6916 73.6288 95.6414 73.6045C95.3159 73.4488 94.9786 73.3824 94.6653 73.4126C93.7534 71.5537 93.9309 70.0094 93.9333 69.9931C93.947 69.8904 93.9194 69.7752 93.8565 69.6731C93.7936 69.5709 93.7005 69.49 93.5977 69.4481C93.4953 69.407 93.3918 69.4079 93.3096 69.4506C93.2273 69.4932 93.173 69.5742 93.1582 69.6761C93.148 69.7519 92.9392 71.4926 93.9896 73.6347C93.7223 73.8118 93.5295 74.083 93.4343 74.4163ZM102.177 74.759C102.334 74.654 102.538 74.6283 102.749 74.6871C102.96 74.7459 103.162 74.8848 103.315 75.0761C103.39 75.1708 103.49 75.2386 103.594 75.2648C103.697 75.2909 103.796 75.2731 103.868 75.2154C103.94 75.1577 103.98 75.0648 103.979 74.9571C103.977 74.8493 103.935 74.7356 103.86 74.6408C103.684 74.4194 103.47 74.2333 103.237 74.0973C103.469 73.3367 103.377 72.947 103.162 72.2052C103.119 72.0599 103.079 71.9145 103.039 71.7691L103.016 71.6818C102.731 70.6274 102.543 69.9316 103.084 69.1657C103.138 69.0888 103.155 68.9833 103.131 68.8724C103.107 68.7614 103.044 68.6542 102.956 68.5743C102.867 68.4943 102.761 68.4482 102.66 68.4461C102.559 68.444 102.472 68.486 102.417 68.5629C101.692 69.5894 101.958 70.575 102.267 71.7161L102.291 71.8033C102.337 71.9721 102.379 72.1231 102.418 72.2561C102.611 72.924 102.67 73.1462 102.434 73.8278C102.138 73.8033 101.864 73.8715 101.644 74.0242C101.571 74.0785 101.529 74.1678 101.526 74.2729C101.524 74.378 101.561 74.4906 101.631 74.5867C101.701 74.6827 101.797 74.7545 101.899 74.7867C102.001 74.8189 102.101 74.809 102.177 74.759ZM107.155 73.676C107.388 73.739 107.617 73.7476 107.827 73.7014C107.921 73.6808 107.993 73.6177 108.029 73.5261C108.064 73.4344 108.059 73.3217 108.014 73.2127C107.97 73.1037 107.891 73.0073 107.793 72.9448C107.695 72.8823 107.588 72.8587 107.494 72.8793C107.302 72.9191 107.083 72.8732 106.883 72.7508C106.682 72.6283 106.513 72.4384 106.412 72.2193C106.388 72.1644 106.356 72.1124 106.316 72.0663C106.276 72.0203 106.23 71.9811 106.18 71.9512C106.13 71.9213 106.078 71.9012 106.026 71.8921C105.973 71.8831 105.923 71.8853 105.876 71.8985C105.83 71.9117 105.789 71.9358 105.757 71.9693C105.724 72.0027 105.699 72.0449 105.685 72.0932C105.671 72.1416 105.667 72.1951 105.673 72.2507C105.679 72.3063 105.696 72.3628 105.723 72.4168C105.863 72.7266 106.073 72.9973 106.317 73.2117C105.897 74.1558 106.136 75.3419 106.33 75.9892C106.345 76.0454 106.37 76.1007 106.404 76.1517C106.437 76.2027 106.478 76.2483 106.525 76.286C106.572 76.3236 106.623 76.3524 106.675 76.3706C106.728 76.3889 106.78 76.3962 106.83 76.3922C106.88 76.3882 106.926 76.3729 106.965 76.3472C107.005 76.3215 107.036 76.286 107.059 76.2428C107.081 76.1996 107.094 76.1496 107.096 76.0957C107.098 76.0419 107.09 75.9853 107.071 75.9294C106.939 75.491 106.685 74.4041 107.069 73.6408C107.099 73.6504 107.126 73.6682 107.155 73.676ZM110.907 82.3158C110.904 82.2618 110.891 82.2063 110.868 82.1523C110.846 82.0984 110.814 82.0472 110.776 82.0017C110.737 81.9562 110.692 81.9172 110.643 81.8871C110.595 81.857 110.543 81.8364 110.492 81.8264C110.304 81.7895 110.116 81.714 109.938 81.6042C109.76 81.4943 109.595 81.3523 109.454 81.1863C109.312 81.0203 109.197 80.8335 109.113 80.6367C109.03 80.4399 108.981 80.2369 108.969 80.0395C108.96 79.9307 108.912 79.8191 108.834 79.728C108.756 79.637 108.655 79.5737 108.552 79.5513C108.501 79.5411 108.451 79.5417 108.405 79.553C108.359 79.5644 108.318 79.5861 108.284 79.6172C108.25 79.6482 108.224 79.6879 108.208 79.7339C108.192 79.7799 108.185 79.8314 108.189 79.8854C108.221 80.3717 108.397 80.8496 108.664 81.2719C108.035 81.8693 107.212 81.8665 106.753 81.7993C106.347 81.7408 105.992 81.6027 105.581 81.4425C105.205 81.2972 104.779 81.1321 104.253 81.0073L104.249 81.0071C104.233 80.7713 104.18 80.4194 104.011 80.093C103.952 79.9941 103.866 79.9138 103.768 79.8681C103.671 79.8224 103.569 79.8148 103.485 79.8469C103.401 79.8789 103.34 79.9483 103.315 80.0408C103.289 80.1334 103.301 80.2422 103.348 80.3454C103.453 80.5476 103.472 80.8305 103.472 80.9658C103.078 81.0067 102.737 81.1307 102.429 81.2562C101.879 81.4795 101.444 81.6563 100.791 81.3291C100.2 81.0306 99.6081 80.8436 99.106 80.782C99.0278 80.5578 98.9043 80.2818 98.7134 80.0436C98.638 79.9496 98.5374 79.8829 98.4337 79.8582C98.33 79.8334 98.2317 79.8527 98.1605 79.9116C98.0892 79.9706 98.0509 80.0645 98.0538 80.1726C98.0567 80.2808 98.1007 80.3943 98.1761 80.4883C98.2434 80.5719 98.2966 80.6817 98.3396 80.7887C97.4769 80.9252 97.0444 81.4239 97.0241 81.4484C96.9826 81.4977 96.958 81.5622 96.953 81.6348C96.9479 81.7075 96.9626 81.7854 96.9955 81.8601C97.0284 81.9348 97.0781 82.0034 97.1393 82.0584C97.2005 82.1133 97.2708 82.1525 97.3424 82.1717C97.4042 82.1885 97.4653 82.19 97.5205 82.1759C97.5757 82.1619 97.6235 82.1327 97.6599 82.0908C97.6639 82.0854 98.0932 81.6053 98.9402 81.5918C99.3782 81.5844 100.006 81.7632 100.619 82.0714C100.79 82.1578 100.949 82.2141 101.103 82.2578C101.175 82.4538 101.204 82.6711 101.208 82.7499C101.213 82.8546 101.257 82.9634 101.329 83.0539C101.402 83.1444 101.498 83.2098 101.598 83.2366L101.619 83.2415C101.722 83.2635 101.819 83.2417 101.888 83.1809C101.958 83.1201 101.994 83.0253 101.989 82.9171C101.976 82.725 101.942 82.5295 101.887 82.3344C102.248 82.2958 102.561 82.1685 102.856 82.0492C103.304 81.867 103.727 81.6946 104.28 81.8241C104.743 81.9312 105.124 82.0796 105.493 82.2228C105.863 82.3667 106.228 82.4935 106.63 82.5769C106.701 82.8008 106.695 83.073 106.685 83.1616C106.678 83.2168 106.683 83.276 106.7 83.3353C106.716 83.3945 106.743 83.4525 106.78 83.5053C106.817 83.5582 106.862 83.6048 106.912 83.6421C106.963 83.6794 107.018 83.7065 107.073 83.7216C107.168 83.7469 107.26 83.7356 107.331 83.6899C107.402 83.6442 107.448 83.5671 107.46 83.4731C107.489 83.2152 107.473 82.9424 107.414 82.6665C108.128 82.6617 108.767 82.4177 109.248 81.9668C109.636 82.319 110.089 82.5572 110.543 82.6483C110.647 82.6687 110.743 82.6451 110.811 82.5828C110.879 82.5205 110.914 82.4245 110.907 82.3158Z" fill="white"/>
</g>
<defs>
<linearGradient id="paint0_linear_4809_5398" x1="39.0543" y1="0" x2="39.0543" y2="77.3353" gradientUnits="userSpaceOnUse">
<stop/>
<stop offset="1" stop-color="#666666"/>
</linearGradient>
<linearGradient id="paint1_linear_4809_5398" x1="47.1745" y1="0" x2="47.1745" y2="92.029" gradientUnits="userSpaceOnUse">
<stop/>
<stop offset="1" stop-color="#666666"/>
</linearGradient>
<linearGradient id="paint2_linear_4809_5398" x1="54.9075" y1="64.4193" x2="52.6929" y2="25.1814" gradientUnits="userSpaceOnUse">
<stop stop-color="#F9F9F9" stop-opacity="0.8"/>
<stop offset="1" stop-color="#A7A7A7" stop-opacity="0.6"/>
</linearGradient>
<clipPath id="clip0_4809_5398">
<rect width="29.1486" height="29.1486" fill="white" transform="matrix(0.965926 0.258819 0 1 87.6895 59.165)"/>
</clipPath>
</defs>
</svg>

<svg width="226" height="163" fill="none" xmlns="http://www.w3.org/2000/svg"><rect width="115.42" height="120.368" rx="5" transform="matrix(.96593 .25882 0 1 50.166 -.999)" fill="#F9F9F9"/><rect x=".483" y=".629" width="77.109" height="76.335" rx="4.5" transform="matrix(.96593 .25882 0 1 65.284 29.382)" stroke="url(#a)" stroke-opacity=".4"/><rect x=".483" y=".629" width="126.234" height="124.974" rx="4.5" transform="matrix(.96593 .25882 0 1 38.182 2.872)" stroke="#3D3D3D"/><rect x=".483" y=".629" width="78.716" height="26.915" rx="4.5" transform="matrix(.96593 .25882 0 1 6.182 3.876)" stroke="#A7A7A7" stroke-dasharray="6 6"/><rect x=".483" y=".629" width="78.716" height="26.915" rx="4.5" transform="matrix(.96593 .25882 0 1 109.182 114.877)" stroke="#A7A7A7" stroke-dasharray="6 6"/><rect x=".483" y=".629" width="93.349" height="91.029" rx="4.5" transform="matrix(.96593 .25882 0 1 57.065 19.126)" stroke="url(#b)" stroke-opacity=".1"/><rect width="64.775" height="64.775" rx="5" transform="matrix(.96593 .25882 0 1 70.502 36.773)" fill="url(#c)"/><rect x=".483" y=".629" width="56.218" height="56.218" rx="4.5" transform="matrix(.96593 .25882 0 1 74.253 41.517)" stroke="#A7A7A7" stroke-opacity=".3"/><g clip-path="url(#d)"><path d="M111.068 87.022c.003.23-.055.514-.114.745-.415 1.626-2.259 3.08-4.855 2.208-2.353-.791-4.269-2.474-4.269-4.113 0-1.64 1.912-2.457 4.269-1.826 2.357.632 4.954 1.343 4.969 2.986z" fill="#3D3D3D"/><path d="M106.099 84.311c-1.266-.34-4.156-.75-4.819-.929-1.172-.314-2.122.193-2.122 1.132 0 .452.224.92.582 1.32 0 0 .787 1.028 2.204 1.016.62-.005 1.629-1.01 3.405-.736.885.136 2.542 1.288 5.455 2.086.125-.245.151-.432.151-.432 0-1.641-2.498-2.825-4.856-3.457z" fill="#fff"/><path d="M110.96 87.768s1.708.099 2.77-1.063c1.238-1.355 1.076-3.203 1.076-3.203 1.254-2.093-.391-4.812-.391-4.812-.164-2.608-1.695-4.08-1.695-4.08-.994-2.713-3.194-3.96-3.194-3.96-1.726-2.554-4.79-3.307-4.79-3.307s-2.87-1.858-6.81-1.69c-.652.028-2.835-.085-4.433.5-5.033 1.84-5.414 6.713-5.343 7.54.39 4.626 3.453 6.256 5.408 7.252.456 1.404 2.135 4.216 5.149 4.147 3.715.32 5.279-.408 6.192-.163.913.245 3.454 1.938 6.061 2.839z" fill="#389D2D"/><path d="M101.559 77.982c1.82-.529 2.807-.17 3.679.146.276.1.538.19.804.26 1.551.379 2.808.039 3.364-.467a.332.332 0 0 0 .086-.267.546.546 0 0 0-.131-.306.522.522 0 0 0-.277-.174.307.307 0 0 0-.266.054c-.429.39-1.485.665-2.794.345-.235-.055-.47-.143-.714-.232-.935-.34-2.096-.761-4.123-.171-.52.15-1.233.067-2.006-.059-1.718-3.028-.684-4.987-.389-5.44.03.009.057.026.087.034.313.084.627.089.912-.002a.28.28 0 0 0 .175-.197.458.458 0 0 0-.038-.311.579.579 0 0 0-.23-.25.388.388 0 0 0-.292-.05c-.246.075-.534.037-.806-.106a1.637 1.637 0 0 1-.664-.665.567.567 0 0 0-.244-.229.361.361 0 0 0-.286-.02.281.281 0 0 0-.169.2.461.461 0 0 0 .041.309c.186.35.447.646.742.876-.408.748-1.181 2.793.29 5.706-1.035-.172-2.072-.298-2.884.026a3.875 3.875 0 0 0-1.469 1.056c-.491-.219-2.293-1.16-2.607-3.314a.995.995 0 0 0 .451-.5.364.364 0 0 0 .028-.148.487.487 0 0 0-.033-.163.579.579 0 0 0-.215-.273.475.475 0 0 0-.15-.069.355.355 0 0 0-.149-.006.278.278 0 0 0-.208.166.435.435 0 0 1-.138.19.433.433 0 0 1-.217.089.599.599 0 0 1-.258-.041.806.806 0 0 1-.245-.15.517.517 0 0 0-.145-.088.395.395 0 0 0-.153-.028.278.278 0 0 0-.234.13.382.382 0 0 0-.034.298c.028.111.095.217.186.293.222.188.46.316.696.38.029.007.056 0 .085.007.372 2.053 1.864 3.311 2.919 3.854-.138.267-.226.57-.259.895a.51.51 0 0 0 .09.32.55.55 0 0 0 .265.215l.035.01a.317.317 0 0 0 .264-.035.301.301 0 0 0 .126-.23c.084-.959.99-1.742 1.793-2.065.754-.301 1.858-.111 2.926.072 1.036.18 2.015.348 2.783.125zm10.062 1.478a.385.385 0 0 0-.032.3c.029.11.097.216.188.291a.45.45 0 0 0 .297.114.279.279 0 0 0 .234-.132c.015-.024 1.44-2.407-1.229-4.98a.48.48 0 0 0-.293-.14.286.286 0 0 0-.25.104.358.358 0 0 0-.059.288c.02.111.08.22.166.303 2.067 1.993 1.023 3.777.978 3.852zm-16.21-10.88a.35.35 0 0 0 .178.002.272.272 0 0 0 .14-.086c1.133-1.33 2.704-.35 2.77-.306.096.058.201.08.293.058a.275.275 0 0 0 .197-.172.427.427 0 0 0-.01-.306.583.583 0 0 0-.21-.267c-.75-.49-2.485-1.045-3.676.35a.322.322 0 0 0-.072.187.481.481 0 0 0 .042.226.587.587 0 0 0 .144.2.504.504 0 0 0 .204.113zm10.223 1.21c1.74.32 2.532 1.838 2.568 1.909a.57.57 0 0 0 .239.25.43.43 0 0 0 .152.05c.051.007.1.002.144-.012a.27.27 0 0 0 .115-.075.312.312 0 0 0 .066-.125.401.401 0 0 0 .009-.155.521.521 0 0 0-.05-.163c-.043-.085-1.048-2.077-3.304-2.503a.339.339 0 0 0-.147.004.276.276 0 0 0-.12.065.331.331 0 0 0-.092.27.553.553 0 0 0 .42.485zm7.156 13.748c-.192-.063-.404.038-.421.257-.002.014-.126 1.358-1.494 1.457a.275.275 0 0 0-.215.115.36.36 0 0 0-.053.263c.014.1.062.2.134.28a.52.52 0 0 0 .257.164.37.37 0 0 0 .122.013c1.855-.133 2.022-1.94 2.028-2.016a.433.433 0 0 0-.017-.162.58.58 0 0 0-.194-.289.499.499 0 0 0-.147-.082z" fill="#fff"/><path d="M93.434 74.416a.388.388 0 0 0-.015.157.516.516 0 0 0 .047.166.587.587 0 0 0 .24.26c.051.028.104.045.156.052a.322.322 0 0 0 .147-.015.27.27 0 0 0 .115-.078.304.304 0 0 0 .065-.129.794.794 0 0 1 .49-.542c.24-.088.526-.064.802.067.05.025.102.039.153.043a.313.313 0 0 0 .141-.021.27.27 0 0 0 .11-.082.308.308 0 0 0 .059-.13.414.414 0 0 0 .002-.157.59.59 0 0 0-.304-.403 1.863 1.863 0 0 0-.977-.191c-.912-1.86-.734-3.404-.732-3.42a.497.497 0 0 0-.077-.32.56.56 0 0 0-.258-.225.344.344 0 0 0-.288.003.292.292 0 0 0-.152.225c-.01.076-.219 1.817.832 3.959a1.37 1.37 0 0 0-.556.781zm8.743.343a.685.685 0 0 1 .572-.072c.211.059.413.198.566.39a.531.531 0 0 0 .279.188.31.31 0 0 0 .274-.05.32.32 0 0 0 .111-.258.535.535 0 0 0-.119-.316 2.256 2.256 0 0 0-.623-.544c.232-.76.14-1.15-.075-1.892-.043-.145-.083-.29-.123-.436l-.023-.087c-.285-1.055-.473-1.75.068-2.516a.371.371 0 0 0 .047-.294.575.575 0 0 0-.175-.298.468.468 0 0 0-.296-.128.283.283 0 0 0-.243.117c-.725 1.026-.459 2.012-.15 3.153l.024.087c.046.17.088.32.127.453.193.668.252.89.016 1.572a1.196 1.196 0 0 0-.79.196.313.313 0 0 0-.118.249.526.526 0 0 0 .105.314c.07.096.166.167.268.2a.324.324 0 0 0 .278-.028zm4.978-1.083c.233.063.462.072.672.025a.277.277 0 0 0 .202-.175.429.429 0 0 0-.015-.313.578.578 0 0 0-.221-.268.403.403 0 0 0-.299-.066.855.855 0 0 1-.611-.128 1.236 1.236 0 0 1-.471-.532.6.6 0 0 0-.232-.268.454.454 0 0 0-.154-.059.339.339 0 0 0-.15.007.264.264 0 0 0-.119.07.29.29 0 0 0-.072.124.41.41 0 0 0-.012.158.491.491 0 0 0 .05.166c.14.31.35.58.594.795-.42.944-.181 2.13.013 2.777a.568.568 0 0 0 .345.381.38.38 0 0 0 .155.022.275.275 0 0 0 .229-.15.352.352 0 0 0 .037-.146.464.464 0 0 0-.025-.167c-.132-.438-.386-1.525-.002-2.288.03.01.057.027.086.035zm3.752 8.64a.488.488 0 0 0-.039-.164.58.58 0 0 0-.225-.265.45.45 0 0 0-.151-.06 1.676 1.676 0 0 1-.554-.223 2.14 2.14 0 0 1-.825-.968 1.831 1.831 0 0 1-.144-.597.559.559 0 0 0-.135-.311.53.53 0 0 0-.282-.177.338.338 0 0 0-.147.002.276.276 0 0 0-.197.18.377.377 0 0 0-.019.152c.032.487.208.965.475 1.387-.629.597-1.452.594-1.911.527-.406-.058-.761-.196-1.172-.357-.376-.145-.802-.31-1.328-.435h-.004a2.375 2.375 0 0 0-.238-.914.57.57 0 0 0-.243-.225.364.364 0 0 0-.283-.021.279.279 0 0 0-.17.194.45.45 0 0 0 .033.304c.105.203.124.486.124.62-.394.042-.735.166-1.043.291-.55.224-.985.4-1.638.073-.591-.298-1.183-.485-1.685-.547a2.517 2.517 0 0 0-.393-.738.525.525 0 0 0-.28-.186.308.308 0 0 0-.273.054.32.32 0 0 0-.106.26.539.539 0 0 0 .122.316c.067.084.12.194.164.3-.863.137-1.296.636-1.316.66a.32.32 0 0 0-.071.187.48.48 0 0 0 .043.225.587.587 0 0 0 .143.198.504.504 0 0 0 .203.114.35.35 0 0 0 .178.004.27.27 0 0 0 .14-.085c.004-.006.433-.486 1.28-.5.438-.007 1.066.172 1.679.48.171.087.33.143.484.187.072.196.101.413.105.492a.541.541 0 0 0 .121.304c.073.09.169.156.269.183l.021.005c.103.021.2 0 .269-.061a.321.321 0 0 0 .101-.264 2.862 2.862 0 0 0-.102-.583c.361-.038.674-.166.969-.285.448-.182.871-.354 1.424-.225.463.107.844.256 1.213.399.37.144.735.27 1.137.354.071.224.065.496.055.585a.434.434 0 0 0 .015.173.6.6 0 0 0 .212.307.5.5 0 0 0 .161.08.32.32 0 0 0 .258-.032.295.295 0 0 0 .129-.217 2.52 2.52 0 0 0-.046-.806c.714-.005 1.353-.25 1.834-.7.388.352.841.59 1.295.681.104.02.2-.003.268-.065a.327.327 0 0 0 .096-.267z" fill="#fff"/></g><defs><linearGradient id="a" x1="39.054" y1="0" x2="39.054" y2="77.335" gradientUnits="userSpaceOnUse"><stop/><stop offset="1" stop-color="#666"/></linearGradient><linearGradient id="b" x1="47.175" y1="0" x2="47.175" y2="92.029" gradientUnits="userSpaceOnUse"><stop/><stop offset="1" stop-color="#666"/></linearGradient><linearGradient id="c" x1="54.907" y1="64.419" x2="52.693" y2="25.181" gradientUnits="userSpaceOnUse"><stop stop-color="#F9F9F9" stop-opacity=".8"/><stop offset="1" stop-color="#A7A7A7" stop-opacity=".6"/></linearGradient><clipPath id="d"><path fill="#fff" transform="matrix(.96593 .25882 0 1 87.69 59.165)" d="M0 0h29.149v29.149H0z"/></clipPath></defs></svg>
